src/img/donate/open-collective.svg

<svg height="200" viewBox="0 0 501 200" width="501" xmlns="http://www.w3.org/2000/svg"><g fill="none" fill-rule="evenodd"><path d="m5 5h491v190h-491z" fill="#fff" stroke="#b8d5e6" stroke-width="10"/><g transform="translate(61 51)"><path d="m81.1612063 49.4336781c0 6.2145196-1.8907575 12.1465609-5.1421535 17.2841325l12.9349015 12.9586856c6.4674508-8.6508937 9.9839063-19.1732052 9.9839063-29.9956497 0-11.3520911-3.7815149-21.6095793-10.2489657-29.9779948l-12.6875128 12.6938624c3.3397492 5.0492971 5.1244829 10.9636836 5.1421535 17.0193091z" fill="#b8d5e6"/><path d="m49.3364006 81.3007456c-17.5469362-.0353098-31.7717938-14.282802-31.8071351-31.8670675.0353413-17.6019204 14.2601989-31.8494126 31.8071351-31.8847224 6.4674508 0 12.4047826 1.9067276 17.2642061 5.1375716l12.6698421-12.71151725c-8.6409384-6.47934281-19.1372929-9.99266493-29.9340482-9.97501005-27.2304417 0-49.3364006 22.1392258-49.3364006 49.4336781 0 27.2767974 22.1059589 49.4336781 49.3364006 49.4336781 10.8497672.0353098 21.381463-3.5839416 29.9340482-10.2751431l-12.9349016-12.9586856c-4.594364 3.7781454-10.5140252 5.6672181-16.9991466 5.6672181z" fill="#3faff0"/></g><g transform="translate(220 55)"><g fill="#546070"><path d="m4.94623656 0v30.6048387h13.44190674c7.0768596 0 11.2892761-3.1071243 11.2892761-8.3080343 0-4.1976376-2.6443659-7.0833038-7.1697047-7.7376119 3.6759781-.7449045 5.7804669-3.3252269 5.7804669-6.90882168 0-4.80832517-3.806649-7.65037082-10.1269929-7.65037082zm3.58313299 3.36549208h9.45300635c4.2124164 0 6.6779695 1.74817684 6.6779695 4.8519457 0 3.19436532-2.4655531 4.98616272-6.6779695 4.98616272h-9.45300635zm0 13.15998002h9.45300635c5.109919 0 8.0672073 1.9662795 8.0672073 5.2915064 0 3.4963537-2.9572883 5.4626332-8.0672073 5.4626332h-9.45300635z" fill-rule="nonzero"/><path d="m45.3362829 6.91104973c-6.8607872 0-11.7018743 4.85360367-11.7018743 11.84689447 0 6.9898729 4.7963578 11.8468945 11.7466036 11.8468945 3.9430603 0 7.263351-1.4253188 9.503257-3.9204812l-1.9268008-2.0474004c-1.8373422 1.9140972-4.3937941 2.9395064-7.3080803 2.9395064-4.5727113 0-7.9342906-2.895072-8.5639416-7.4820693h19.2783305c.3578344-7.9742656-3.4063086-13.22777887-11.0274941-13.18334447zm-8.2508364 10.33270687c.5401924-4.453694 3.7675838-7.34876605 8.2508364-7.34876605 4.6174406 0 7.6659148 2.85063765 7.8895613 7.34876605z" fill-rule="nonzero"/><path d="m70.8397587 6.91187987c-6.6882769 0-11.48492 4.85343353-11.48492 11.84647943 0 6.9896279 4.7527301 11.8464794 11.48492 11.8464794 4.0062104 0 7.21861-1.5141345 9.2892736-4.0536424l-1.9828377-2.1361944c-1.6281563 1.958463-4.1379491 3.0282692-7.1746971 3.0282692-4.7966431 0-8.2286074-3.5648812-8.2286074-8.6849118 0-5.1234486 3.4319643-8.6404789 8.2286074-8.6404789 2.8171833 0 5.1513244 1.0253733 6.9112195 2.7172392l1.8916339-2.4506422c-2.1111985-2.22506003-5.1918594-3.51703037-8.9345922-3.47259753z"/><path d="m94.9677419 6.91077003c-6.9335459 0-11.8709677 4.80922597-11.8709677 11.80259937 0 7.0343903 4.9374218 11.8914693 11.8709677 11.8914693 6.9369581 0 11.8709681-4.857079 11.8709681-11.8914693 0-6.9933734-4.93401-11.80259937-11.8709681-11.80259937zm0 3.16171577c4.8930635 0 8.4041951 3.56163 8.4041951 8.6853186 0 5.1647054-3.5111316 8.7297535-8.4041951 8.7297535-4.8896512 0-8.4007825-3.5650481-8.4007825-8.7297535 0-5.1236886 3.5111313-8.6853186 8.4007825-8.6853186z" fill-rule="nonzero"/><path d="m142.672579 6.91077003c-4.47371.04460222-7.750804 2.01053059-9.212578 6.16882937-.97225-3.89068549-3.984185-6.16882937-8.369508-6.16882937-4.208551.04460222-7.353066 1.78751952-8.903226 5.45176297v-5.31795633h-3.413073v23.56026203h3.413073v-11.579421c0-5.0503431 2.879355-8.5396086 7.662417-8.6734153 4.072571 0 6.465802 2.4599837 6.465802 6.6628847v13.5899516h3.49806v-11.579421c0-5.0503431 2.790969-8.5396086 7.621624-8.6734153 4.028378 0 6.465802 2.4599837 6.465802 6.6628847v13.5899516h3.453867v-14.5300291c0-5.678205-3.232901-9.16403957-8.68226-9.16403957z"/><g fill-rule="nonzero"><path d="m167.999509 6.91104973c-6.857347 0-11.698434 4.85360367-11.698434 11.84689447 0 6.9898729 4.796358 11.8468945 11.746604 11.8468945 3.94306 0 7.25991-1.4253188 9.503257-3.9204812l-1.926801-2.0474004c-1.840783 1.9140972-4.393794 2.9395064-7.30808 2.9395064-4.572711 0-7.937731-2.895072-8.563942-7.4820693h19.278331c.357834-7.9742656-3.406309-13.22777887-11.030935-13.18334447zm-8.247396 10.33270687c.536752-4.453694 3.767584-7.34876605 8.247396-7.34876605 4.620881 0 7.669356 2.85063765 7.893002 7.34876605z"/><path d="m211.310988 30.4277632h3.355679l-.044065-15.4430298c-.044064-5.0125998-3.223485-8.07396337-8.965424-8.07396337-3.975971 0-6.494425 1.15439628-9.497588 3.14990137l1.457517 2.5301369c2.430325-1.6856228 4.816585-2.66294358 7.375714-2.66294358 4.108164 0 6.230038 2.03977398 6.230038 5.45869388v1.3723354h-7.64349c-5.474163.0442689-8.697649 2.6186747-8.697649 6.7016279 0 4.0386844 3.091292 7.1443168 7.904488 7.1443168 3.708195 0 6.667293-1.242934 8.52478-3.773071zm-7.863813-2.8400192c-3.26755 0-5.341969-1.6856229-5.341969-4.2600287 0-2.5744059 2.030355-3.773071 5.918197-3.773071h7.24352v2.7957502c-.884678 3.2384392-3.887841 5.2373495-7.819748 5.2373495z"/></g></g><g fill="#b8d5e6"><path d="m16.9869255 44.4263788c-8.86230236 0-14.71636235 4.3103183-14.71636235 11.0875272 0 13.0286869 19.51804505 9.1429973 19.51804505 15.6573408 0 2.1029231-1.844198 3.2049357-4.8016827 3.2049357-3.850821 0-9.54922385-2.2073953-13.34590322-5.5168031l-3.64102228 7.1984675c4.37870152 3.5722732 10.7098843 5.8841406 16.8820262 5.8841406 8.2295225 0 14.7738878-3.8890597 14.7738878-11.2425504 0-13.2949224-19.521429-9.6687281-19.521429-16.0280484 0-1.7861366 1.6343994-2.6792049 4.0640035-2.6792049 3.0048586 0 7.9114406 1.5771923 11.8164032 3.8351386l3.5361229-7.3029397c-3.8000632-2.4702606-9.2345258-4.0980039-14.5640891-4.0980039z"/><path d="m54.0531995 53.3116545c-3.5518648 0-6.4268648 1.4603151-8.4105478 4.0133603v-3.6992422h-9.0405012v38.1887435h9.0405012v-13.8579558c1.983683 2.6065121 4.9625583 4.0634855 8.6182984 4.0634855 7.8911713 0 13.0078671-5.677518 13.0078671-14.2221992 0-8.7017403-5.2741841-14.4861921-13.2156177-14.4861921zm-2.1947844 21.5705582c-3.6557401 0-6.2157634-2.9707554-6.2157634-7.3450173 0-4.2740115 2.5600233-7.2948921 6.2157634-7.2948921 3.7629662 0 6.3229895 3.0208806 6.3229895 7.2948921 0 4.3241367-2.5600233 7.3450173-6.3229895 7.3450173z" fill-rule="nonzero"/><path d="m85.5949388 53.3116545c-9.213692 0-15.3583797 5.6654134-15.3583797 14.290172 0 8.6247587 6.1446877 14.340161 15.3583797 14.340161 9.1635994 0 15.3082872-5.7154023 15.3082872-14.340161 0-8.6247586-6.1446878-14.290172-15.3082872-14.290172zm0 7.1184253c3.6968311 0 6.2482122 2.9626779 6.2482122 7.2750572 0 4.3657009-2.5513811 7.2750573-6.2482122 7.2750573-3.7469237 0-6.2983049-2.9093564-6.2983049-7.2750573 0-4.3123793 2.5513812-7.2750572 6.2983049-7.2750572z" fill-rule="nonzero"/><path d="m124.263421 53.3116545c-4.175258.0537092-7.407068 1.7287632-9.390985 5.0251622v-4.6055595h-9.022974v28.2107303h9.022974v-14.917716c.364666-3.3501081 2.452295-5.7032402 5.737635-5.7032402 3.024385 0 4.954773 2.0409476 4.954773 5.3373466v15.2836096h8.97279v-17.7945123c0-6.5961548-4.0682-10.8358207-10.274213-10.8358207z"/><path d="m151.467183 53.3116545c-6.591115 0-11.548824 3.1023376-11.548824 8.8363589-.050727 9.767723 14.660073 7.649781 14.660073 11.7331996 0 1.2893262-1.318899 1.9091308-3.111249 1.9091308-3.165359 0-6.854895-1.2396092-10.070981-3.4602995l-2.901578 5.6843043c3.429138 2.5819669 8.01485 3.9276389 12.759506 3.9276389 6.854895 0 11.971548-3.1520545 11.971548-8.8893902.050727-9.7146916-14.923854-7.8552778-14.923854-11.6801683 0-1.2893262 1.159955-1.9091308 2.796743-1.9091308 2.370637 0 5.535996.9810811 8.961752 2.790778l3.11125-5.7903672c-3.479865-2.0151936-7.592126-3.1520545-11.704386-3.1520545z"/><path d="m181.555268 53.3116545c-9.217032 0-15.36172 5.6654134-15.36172 14.290172 0 8.6247587 6.144688 14.340161 15.36172 14.340161 9.163599 0 15.304947-5.7154023 15.304947-14.340161 0-8.6247586-6.141348-14.290172-15.304947-14.290172zm0 7.1184253c3.696831 0 6.248212 2.9626779 6.248212 7.2750572 0 4.3657009-2.551381 7.2750573-6.248212 7.2750573-3.750264 0-6.301645-2.9093564-6.301645-7.2750573 0-4.3123793 2.551381-7.2750572 6.301645-7.2750572z" fill-rule="nonzero"/><path d="m211.152341 53.7312572h-9.345889v28.2107303h9.345889v-14.4981133c.484961-3.9778338 4.049424-6.4383841 9.44981-5.9684291v-8.1637906c-4.156808.0537092-7.451078 1.8865339-9.44981 5.1829329z"/></g></g></g></svg>

<?xml version="1.0" encoding="UTF-8"?>
<svg width="501px" height="200px" viewBox="0 0 501 200" version="1.1" xmlns="http://www.w3.org/2000/svg" xmlns:xlink="http://www.w3.org/1999/xlink">
    <!-- Generator: Sketch 52.6 (67491) - http://www.bohemiancoding.com/sketch -->
    <title>open collective</title>
    <desc>Created with Sketch.</desc>
    <g id="Donate-Buttons" stroke="none" stroke-width="1" fill="none" fill-rule="evenodd">
        <g transform="translate(-205.000000, -1408.000000)" id="open-collective">
            <g transform="translate(205.000000, 1408.000000)">
                <rect id="Rectangle" stroke="#B8D5E6" stroke-width="10" fill="#FFFFFF" x="5" y="5" width="491" height="190"></rect>
                <g id="Group-2" transform="translate(61.000000, 51.000000)">
                    <g id="logo">
                        <path d="M81.1612063,49.4336781 C81.1612063,55.6481977 79.2704488,61.580239 76.0190528,66.7178106 L88.9539543,79.6764962 C95.4214051,71.0256025 98.9378606,60.503291 98.9378606,49.6808465 C98.9378606,38.3287554 95.1563457,28.0712672 88.6888949,19.7028517 L76.0013821,32.3967141 C79.3411313,37.4460112 81.125865,43.3603977 81.1435356,49.4160232 L81.1612063,49.4336781 Z" id="Path" fill="#B8D5E6"></path>
                        <path d="M49.3364006,81.3007456 C31.7894644,81.2654358 17.5646068,67.0179436 17.5292655,49.4336781 C17.5646068,31.8317577 31.7894644,17.5842655 49.3364006,17.5489557 C55.8038514,17.5489557 61.7411832,19.4556833 66.6006067,22.6865273 L79.2704488,9.97501005 C70.6295104,3.49566724 60.1331559,-0.017654885 49.3364006,1.35525272e-20 C22.1059589,1.35525272e-20 0,22.1392258 0,49.4336781 C0,76.7104755 22.1059589,98.8673562 49.3364006,98.8673562 C60.1861678,98.902666 70.7178636,95.2834146 79.2704488,88.5922131 L66.3355472,75.6335275 C61.7411832,79.4116729 55.821522,81.3007456 49.3364006,81.3007456 Z" id="Path" fill="#3FAFF0"></path>
                    </g>
                    <g id="words" transform="translate(159.000000, 4.000000)">
                        <path d="M4.94623656,0 L4.94623656,30.6048387 L18.3881433,30.6048387 C25.4650029,30.6048387 29.6774194,27.4977144 29.6774194,22.2968044 C29.6774194,18.0991668 27.0330535,15.2135006 22.5077147,14.5591925 C26.1836928,13.814288 28.2881816,11.2339656 28.2881816,7.65037082 C28.2881816,2.84204565 24.4815326,0 18.1611887,0 L4.94623656,0 Z M8.52936955,3.36549208 L17.9823759,3.36549208 C22.1947923,3.36549208 24.6603454,5.11366892 24.6603454,8.21743778 C24.6603454,11.4118031 22.1947923,13.2036005 17.9823759,13.2036005 L8.52936955,13.2036005 L8.52936955,3.36549208 Z M8.52936955,16.5254721 L17.9823759,16.5254721 C23.0922949,16.5254721 26.0495832,18.4917516 26.0495832,21.8169785 C26.0495832,25.3133322 23.0922949,27.2796117 17.9823759,27.2796117 L8.52936955,27.2796117 L8.52936955,16.5254721 Z" id="Shape" fill="#546070" fill-rule="nonzero"></path>
                        <path d="M45.3362829,6.91104973 C38.4754957,6.91104973 33.6344086,11.7646534 33.6344086,18.7579442 C33.6344086,25.7478171 38.4307664,30.6048387 45.3810122,30.6048387 C49.3240725,30.6048387 52.6443632,29.1795199 54.8842692,26.6843575 L52.9574684,24.6369571 C51.1201262,26.5510543 48.5636743,27.5764635 45.6493881,27.5764635 C41.0766768,27.5764635 37.7150975,24.6813915 37.0854465,20.0943942 L56.363777,20.0943942 C56.7216114,12.1201286 52.9574684,6.86661533 45.3362829,6.91104973 Z M37.0854465,17.2437566 C37.6256389,12.7900626 40.8530303,9.89499055 45.3362829,9.89499055 C49.9537235,9.89499055 53.0021977,12.7456282 53.2258442,17.2437566 L37.0854465,17.2437566 Z" id="Shape" fill="#546070" fill-rule="nonzero"></path>
                        <path d="M70.8397587,6.91187987 C64.1514818,6.91187987 59.3548387,11.7653134 59.3548387,18.7583593 C59.3548387,25.7479872 64.1075688,30.6048387 70.8397587,30.6048387 C74.8459691,30.6048387 78.0583687,29.0907042 80.1290323,26.5511963 L78.1461946,24.4150019 C76.5180383,26.3734649 74.0082455,27.4432711 70.9714975,27.4432711 C66.1748544,27.4432711 62.7428901,23.8783899 62.7428901,18.7583593 C62.7428901,13.6349107 66.1748544,10.1178804 70.9714975,10.1178804 C73.7886808,10.1178804 76.1228219,11.1432537 77.882717,12.8351196 L79.7743509,10.3844774 C77.6631524,8.15941737 74.5824915,6.86744703 70.8397587,6.91187987 Z" id="Path" fill="#546070"></path>
                        <path d="M94.9677419,6.91077003 C88.034196,6.91077003 83.0967742,11.719996 83.0967742,18.7133694 C83.0967742,25.7477597 88.034196,30.6048387 94.9677419,30.6048387 C101.9047,30.6048387 106.83871,25.7477597 106.83871,18.7133694 C106.83871,11.719996 101.9047,6.91077003 94.9677419,6.91077003 Z M94.9677419,10.0724858 C99.8608054,10.0724858 103.371937,13.6341158 103.371937,18.7578044 C103.371937,23.9225098 99.8608054,27.4875579 94.9677419,27.4875579 C90.0780907,27.4875579 86.5669594,23.9225098 86.5669594,18.7578044 C86.5669594,13.6341158 90.0780907,10.0724858 94.9677419,10.0724858 Z" id="Shape" fill="#546070" fill-rule="nonzero"></path>
                        <path d="M142.672579,6.91077003 C138.198869,6.95537225 134.921775,8.92130062 133.460001,13.0795994 C132.487751,9.18891391 129.475816,6.91077003 125.090493,6.91077003 C120.881942,6.95537225 117.737427,8.69828955 116.187267,12.362533 L116.187267,7.04457667 L112.774194,7.04457667 L112.774194,30.6048387 L116.187267,30.6048387 L116.187267,19.0254177 C116.187267,13.9750746 119.066622,10.4858091 123.849684,10.3520024 C127.922255,10.3520024 130.315486,12.8119861 130.315486,17.0148871 L130.315486,30.6048387 L133.813546,30.6048387 L133.813546,19.0254177 C133.813546,13.9750746 136.604515,10.4858091 141.43517,10.3520024 C145.463548,10.3520024 147.900972,12.8119861 147.900972,17.0148871 L147.900972,30.6048387 L151.354839,30.6048387 L151.354839,16.0748096 C151.354839,10.3966046 148.121938,6.91077003 142.672579,6.91077003 Z" id="Path" fill="#546070"></path>
                        <path d="M167.999509,6.91104973 C161.142162,6.91104973 156.301075,11.7646534 156.301075,18.7579442 C156.301075,25.7478171 161.097433,30.6048387 168.047679,30.6048387 C171.990739,30.6048387 175.307589,29.1795199 177.550936,26.6843575 L175.624135,24.6369571 C173.783352,26.5510543 171.230341,27.5764635 168.316055,27.5764635 C163.743344,27.5764635 160.378324,24.6813915 159.752113,20.0943942 L179.030444,20.0943942 C179.388278,12.1201286 175.624135,6.86661533 167.999509,6.91104973 Z M159.752113,17.2437566 C160.288865,12.7900626 163.519697,9.89499055 167.999509,9.89499055 C172.62039,9.89499055 175.668865,12.7456282 175.892511,17.2437566 L159.752113,17.2437566 Z" id="Shape" fill="#546070" fill-rule="nonzero"></path>
                        <path d="M211.310988,30.4277632 L214.666667,30.4277632 L214.622602,14.9847334 C214.578538,9.9721336 211.399117,6.91077003 205.657178,6.91077003 C201.681207,6.91077003 199.162753,8.06516631 196.15959,10.0606714 L197.617107,12.5908083 C200.047432,10.9051855 202.433692,9.92786472 204.992821,9.92786472 C209.100985,9.92786472 211.222859,11.9676387 211.222859,15.3865586 L211.222859,16.758894 L203.579369,16.758894 C198.105206,16.8031629 194.88172,19.3775687 194.88172,23.4605219 C194.88172,27.4992063 197.973012,30.6048387 202.786208,30.6048387 C206.494403,30.6048387 209.453501,29.3619047 211.310988,26.8317677 L211.310988,30.4277632 Z M203.447175,27.587744 C200.179625,27.587744 198.105206,25.9021211 198.105206,23.3277153 C198.105206,20.7533094 200.135561,19.5546443 204.023403,19.5546443 L211.266923,19.5546443 L211.266923,22.3503945 C210.382245,25.5888337 207.379082,27.587744 203.447175,27.587744 Z" id="Shape" fill="#546070" fill-rule="nonzero"></path>
                        <path d="M16.9869255,44.4263788 C8.12462314,44.4263788 2.27056315,48.7366971 2.27056315,55.513906 C2.27056315,68.5425929 21.7886082,64.6569033 21.7886082,71.1712468 C21.7886082,73.2741699 19.9444102,74.3761825 16.9869255,74.3761825 C13.1361045,74.3761825 7.43770165,72.1687872 3.64102228,68.8593794 L0,76.0578469 C4.37870152,79.6301201 10.7098843,81.9419875 16.8820262,81.9419875 C25.1115487,81.9419875 31.655914,78.0529278 31.655914,70.6994371 C31.655914,57.4045147 12.134485,61.030709 12.134485,54.6713887 C12.134485,52.8852521 13.7688844,51.9921838 16.1984885,51.9921838 C19.2033471,51.9921838 24.1099291,53.5693761 28.0148917,55.8273224 L31.5510146,48.5243827 C27.7509514,46.0541221 22.3164888,44.4263788 16.9869255,44.4263788 Z" id="Path" fill="#B8D5E6"></path>
                        <path d="M54.0531995,53.3116545 C50.5013347,53.3116545 47.6263347,54.7719696 45.6426517,57.3250148 L45.6426517,53.6257726 L36.6021505,53.6257726 L36.6021505,91.8145161 L45.6426517,91.8145161 L45.6426517,77.9565603 C47.6263347,80.5630724 50.60521,82.0200458 54.2609501,82.0200458 C62.1521214,82.0200458 67.2688172,76.3425278 67.2688172,67.7978466 C67.2688172,59.0961063 61.9946331,53.3116545 54.0531995,53.3116545 Z M51.8584151,74.8822127 C48.202675,74.8822127 45.6426517,71.9114573 45.6426517,67.5371954 C45.6426517,63.2631839 48.202675,60.2423033 51.8584151,60.2423033 C55.6213813,60.2423033 58.1814046,63.2631839 58.1814046,67.5371954 C58.1814046,71.8613321 55.6213813,74.8822127 51.8584151,74.8822127 Z" id="Shape" fill="#B8D5E6" fill-rule="nonzero"></path>
                        <path d="M85.5949388,53.3116545 C76.3812468,53.3116545 70.2365591,58.9770679 70.2365591,67.6018265 C70.2365591,76.2265852 76.3812468,81.9419875 85.5949388,81.9419875 C94.7585382,81.9419875 100.903226,76.2265852 100.903226,67.6018265 C100.903226,58.9770679 94.7585382,53.3116545 85.5949388,53.3116545 Z M85.5949388,60.4300798 C89.2917699,60.4300798 91.843151,63.3927577 91.843151,67.705137 C91.843151,72.0708379 89.2917699,74.9801943 85.5949388,74.9801943 C81.8480151,74.9801943 79.2966339,72.0708379 79.2966339,67.705137 C79.2966339,63.3927577 81.8480151,60.4300798 85.5949388,60.4300798 Z" id="Shape" fill="#B8D5E6" fill-rule="nonzero"></path>
                        <path d="M124.263421,53.3116545 C120.088163,53.3653637 116.856353,55.0404177 114.872436,58.3368167 L114.872436,53.7312572 L105.849462,53.7312572 L105.849462,81.9419875 L114.872436,81.9419875 L114.872436,67.0242715 C115.237102,63.6741634 117.324731,61.3210313 120.610071,61.3210313 C123.634456,61.3210313 125.564844,63.3619789 125.564844,66.6583779 L125.564844,81.9419875 L134.537634,81.9419875 L134.537634,64.1474752 C134.537634,57.5513204 130.469434,53.3116545 124.263421,53.3116545 Z" id="Path" fill="#B8D5E6"></path>
                        <path d="M151.467183,53.3116545 C144.876068,53.3116545 139.918359,56.4139921 139.918359,62.1480134 C139.867632,71.9157364 154.578432,69.7977944 154.578432,73.881213 C154.578432,75.1705392 153.259533,75.7903438 151.467183,75.7903438 C148.301824,75.7903438 144.612288,74.5507346 141.396202,72.3300443 L138.494624,78.0143486 C141.923762,80.5963155 146.509474,81.9419875 151.25413,81.9419875 C158.109025,81.9419875 163.225678,78.789933 163.225678,73.0525973 C163.276405,63.3379057 148.301824,65.1973195 148.301824,61.372429 C148.301824,60.0831028 149.461779,59.4632982 151.098567,59.4632982 C153.469204,59.4632982 156.634563,60.4443793 160.060319,62.2540762 L163.171569,56.463709 C159.691704,54.4485154 155.579443,53.3116545 151.467183,53.3116545 Z" id="Path" fill="#B8D5E6"></path>
                        <path d="M181.555268,53.3116545 C172.338236,53.3116545 166.193548,58.9770679 166.193548,67.6018265 C166.193548,76.2265852 172.338236,81.9419875 181.555268,81.9419875 C190.718867,81.9419875 196.860215,76.2265852 196.860215,67.6018265 C196.860215,58.9770679 190.718867,53.3116545 181.555268,53.3116545 Z M181.555268,60.4300798 C185.252099,60.4300798 187.80348,63.3927577 187.80348,67.705137 C187.80348,72.0708379 185.252099,74.9801943 181.555268,74.9801943 C177.805004,74.9801943 175.253623,72.0708379 175.253623,67.705137 C175.253623,63.3927577 177.805004,60.4300798 181.555268,60.4300798 Z" id="Shape" fill="#B8D5E6" fill-rule="nonzero"></path>
                        <path d="M211.152341,53.7312572 L201.806452,53.7312572 L201.806452,81.9419875 L211.152341,81.9419875 L211.152341,67.4438742 C211.637302,63.4660404 215.201765,61.0054901 220.602151,61.4754451 L220.602151,53.3116545 C216.445343,53.3653637 213.151073,55.1981884 211.152341,58.4945874 L211.152341,53.7312572 Z" id="Path" fill="#B8D5E6"></path>
                    </g>
                </g>
            </g>
        </g>
    </g>
</svg>
